; generated by PrusaSlicer 2.6.0+win64 on 2023-07-03 at 12:31:41 UTC

; 

; external perimeters extrusion width = 0.45mm
; perimeters extrusion width = 0.45mm
; infill extrusion width = 0.45mm
; solid infill extrusion width = 0.45mm
; top infill extrusion width = 0.40mm
; support material extrusion width = 0.35mm
; first layer extrusion width = 0.42mm

; external perimeters extrusion width = 0.45mm
; perimeters extrusion width = 0.45mm
; infill extrusion width = 0.45mm
; solid infill extrusion width = 0.45mm
; top infill extrusion width = 0.40mm
; support material extrusion width = 0.35mm
; first layer extrusion width = 0.42mm

M190 S60 ; set bed temperature and wait for it to be reached
;TYPE:Custom
;G28 ; home all axes
;G1 Z5 F5000 ; lift nozzle
G28 ; home all axes
M109 S210 ; set the extruder temp and wait
G1 Z0.2 F1200 ; raise nozzle
G92 E0 ; reset extrusion distance
G1 X100 Y0 E12 F600 ; wipe
G92 E0 ; reset extrusion distance
G21 ; set units to millimeters
G90 ; use absolute coordinates
M82 ; use absolute distances for extrusion
G92 E0
; Filament gcode
M107
;LAYER_CHANGE
;Z:0.35
;HEIGHT:0.35
G1 E-4.5 F2400
G92 E0
G1 Z.35 F7800
G1 X36.159 Y26.062
G1 E4.5 F2400
;TYPE:Skirt/Brim
;WIDTH:0.42
G1 F1800
G1 X36.885 Y25.055 E4.5623
G1 X45.055 Y16.885 E5.14215
G1 X46.704 Y15.696 E5.24418
G1 X49.318 Y14.389 E5.39085
G1 X52.155 Y13.72 E5.53713
G1 X67.845 Y13.72 E6.32455
G1 X70.682 Y14.389 E6.47083
G1 X73.296 Y15.696 E6.6175
G1 X74.945 Y16.885 E6.71953
G1 X83.115 Y25.055 E7.29938
G1 X84.304 Y26.704 E7.40141
G1 X85.611 Y29.318 E7.54808
G1 X86.28 Y32.155 E7.69436
G1 X86.28 Y87.845 E10.48921
G1 X85.611 Y90.682 E10.63549
G1 X82.996 Y95.91 E10.92885
G1 X81.808 Y97.559 E11.03085
G1 X77.559 Y101.808 E11.33242
G1 X75.91 Y102.996 E11.43442
G1 X70.682 Y105.611 E11.72778
G1 X67.845 Y106.28 E11.87406
G1 X52.155 Y106.28 E12.66148
G1 X49.318 Y105.611 E12.80776
G1 X44.09 Y102.996 E13.10112
G1 X42.441 Y101.808 E13.20312
G1 X38.192 Y97.559 E13.50469
G1 X37.004 Y95.91 E13.60669
G1 X34.389 Y90.682 E13.90005
G1 X33.72 Y87.845 E14.04633
G1 X33.72 Y32.155 E16.84118
G1 X34.389 Y29.318 E16.98746
G1 X35.696 Y26.704 E17.13413
G1 X36.124 Y26.111 E17.17083
G1 E13.12083 F2400
;WIPE_START
G1 F6240
G1 X36.844 Y25.112 E12.67083
;WIPE_END
G92 E0
G1 X69.152 Y61.372 F7800
G1 E4.5 F2400
;TYPE:Support material
G1 F1800
G1 X70.459 Y61.372 E4.56559
G1 X71.766 Y62.679 E4.65835
G1 X73.073 Y62.679 E4.72394
G1 X74.318 Y63.924 E4.8123
G1 X77.321 Y66.927 E5.02543
G1 X77.321 Y68.234 E5.09102
G1 X78.629 Y69.541 E5.18382
G1 X78.629 Y70.848 E5.24941
G1 X79.936 Y72.155 E5.34217
G1 X79.936 Y87.845 E6.12959
G1 X78.629 Y89.152 E6.22235
G1 X78.629 Y90.459 E6.28794
G1 X77.321 Y91.766 E6.38074
G1 X77.321 Y93.073 E6.44633
G1 X73.073 Y97.321 E6.74783
G1 X71.766 Y97.321 E6.81342
G1 X70.459 Y98.629 E6.90622
G1 X69.152 Y98.629 E6.97181
G1 X67.845 Y99.936 E7.06457
G1 X52.155 Y99.936 E7.85199
G1 X50.848 Y98.629 E7.94475
G1 X49.541 Y98.629 E8.01034
G1 X48.234 Y97.321 E8.10314
G1 X46.927 Y97.321 E8.16873
G1 X42.679 Y93.073 E8.47023
G1 X42.679 Y91.766 E8.53582
G1 X41.372 Y90.459 E8.62858
G1 X41.372 Y89.152 E8.69417
G1 X40.064 Y87.845 E8.78697
G1 X40.064 Y72.155 E9.57439
G1 X41.372 Y70.848 E9.66719
G1 X41.372 Y69.541 E9.73278
G1 X42.679 Y68.234 E9.82554
G1 X42.679 Y66.927 E9.89113
G1 X46.927 Y62.679 E10.19263
G1 X48.234 Y62.679 E10.25822
G1 X49.541 Y61.372 E10.35098
G1 X50.848 Y61.372 E10.41657
G1 X52.155 Y60.064 E10.50937
G1 X67.845 Y60.064 E11.29679
G1 X69.115 Y61.335 E11.38696
G1 E7.33696 F2400
;WIPE_START
G1 F6240
G1 X68.244 Y60.464 E6.88696
;WIPE_END
G92 E0
G1 X78.516 Y88.825 F7800
G1 E4.5 F2400
G1 F1800
G1 X78.777 Y88.564 E4.51852
G1 X78.777 Y71.436 E5.3781
G1 X79.161 Y71.819 E5.40532
G1 X79.16 Y88.181 E6.22646
G1 X79.544 Y87.798 E6.25368
G1 X79.544 Y72.203 E7.03633
G1 E2.98633 F2400
;WIPE_START
G1 F6240
G1 X79.544 Y73.435 E2.53633
;WIPE_END
G92 E0
G1 X78.318 Y69.67 F7800
G1 E4.5 F2400
G1 F1800
G1 X78.318 Y70.977 E4.56559
G1 X78.394 Y71.053 E4.57098
G1 X78.394 Y88.947 E5.46901
G1 X78.318 Y89.023 E5.4744
G1 X78.318 Y90.33 E5.53999
G1 X78.011 Y90.637 E5.56178
G1 X78.011 Y69.363 E6.62944
G1 X77.628 Y68.979 E6.65666
G1 X77.628 Y91.021 E7.76286
G1 X77.244 Y91.404 E7.79008
G1 X77.244 Y68.596 E8.93472
G1 E4.88472 F2400
;WIPE_START
G1 F6240
G1 X77.244 Y69.828 E4.43472
;WIPE_END
G92 E0
G1 X43.139 Y93.094 F7800
G1 E4.5 F2400
G1 F1800
G1 X43.139 Y66.906 E5.81427
G1 X43.522 Y66.523 E5.84145
G1 X43.522 Y93.477 E7.19416
G1 X43.905 Y93.861 E7.22138
G1 X43.905 Y66.139 E8.61263
G1 X44.288 Y65.756 E8.63981
G1 X44.288 Y94.244 E10.06951
G1 X44.672 Y94.627 E10.09673
G1 X44.672 Y65.373 E11.56487
G1 X45.055 Y64.99 E11.59205
G1 X45.055 Y95.01 E13.09863
G1 X45.438 Y95.393 E13.12581
G1 X45.438 Y64.607 E14.67083
G1 X45.821 Y64.223 E14.69805
G1 X45.821 Y95.777 E16.28162
G1 X46.204 Y96.16 E16.3088
G1 X46.204 Y63.84 E17.93081
G1 X46.588 Y63.457 E17.95803
G1 X46.588 Y96.543 E19.61848
G1 X46.971 Y96.926 E19.64566
G1 X46.971 Y63.074 E21.34455
G1 X47.056 Y62.989 E21.35058
G1 X47.354 Y62.989 E21.36554
G1 X47.354 Y97.011 E23.07297
G1 X47.737 Y97.011 E23.09219
G1 X47.737 Y62.989 E24.79962
G1 X48.12 Y62.989 E24.81884
G1 X48.12 Y97.011 E26.52627
G1 X48.363 Y97.011 E26.53847
G1 X48.504 Y97.152 E26.54848
G1 X48.504 Y62.848 E28.27006
G1 X48.887 Y62.465 E28.29724
G1 X48.887 Y97.535 E30.05726
G1 X49.27 Y97.918 E30.08444
G1 X49.27 Y62.082 E31.8829
G1 X49.653 Y61.698 E31.91012
G1 X49.653 Y98.302 E33.74713
G1 X49.67 Y98.318 E33.7483
G1 X50.037 Y98.318 E33.76672
G1 X50.037 Y61.682 E35.60533
G1 X50.42 Y61.682 E35.62455
G1 X50.42 Y98.318 E37.46316
G1 X50.803 Y98.318 E37.48238
G1 X50.803 Y61.682 E39.32099
G1 X50.977 Y61.682 E39.32972
G1 X51.186 Y61.473 E39.34455
G1 X51.186 Y98.527 E41.20414
G1 X51.569 Y98.911 E41.23136
G1 X51.569 Y61.089 E43.12949
G1 X51.953 Y60.706 E43.15671
G1 X51.953 Y99.294 E45.09328
G1 X52.284 Y99.625 E45.11677
G1 X52.336 Y99.625 E45.11938
G1 X52.336 Y60.375 E47.08918
G1 X52.719 Y60.375 E47.1084
G1 X52.719 Y99.625 E49.0782
G1 X53.102 Y99.625 E49.09742
G1 X53.102 Y60.375 E51.06722
G1 X53.485 Y60.375 E51.08644
G1 X53.485 Y99.625 E53.05624
G1 X53.869 Y99.625 E53.07551
G1 X53.869 Y60.375 E55.04531
G1 X54.252 Y60.375 E55.06453
G1 X54.252 Y99.625 E57.03433
G1 X54.635 Y99.625 E57.05355
G1 X54.635 Y60.375 E59.02335
G1 X55.018 Y60.375 E59.04257
G1 X55.018 Y99.625 E61.01237
G1 X55.401 Y99.625 E61.03159
G1 X55.401 Y60.375 E63.00139
G1 X55.785 Y60.375 E63.02066
G1 X55.785 Y99.625 E64.99046
G1 X56.168 Y99.625 E65.00968
G1 X56.168 Y60.375 E66.97948
G1 X56.551 Y60.375 E66.9987
G1 X56.551 Y99.625 E68.9685
G1 X56.934 Y99.625 E68.98772
G1 X56.934 Y60.375 E70.95752
G1 X57.318 Y60.375 E70.97679
G1 X57.318 Y99.625 E72.94659
G1 X57.701 Y99.625 E72.96581
G1 X57.701 Y60.375 E74.93561
G1 X58.084 Y60.375 E74.95483
G1 X58.084 Y99.625 E76.92463
G1 X58.467 Y99.625 E76.94385
G1 X58.467 Y60.375 E78.91365
G1 X58.85 Y60.375 E78.93287
G1 X58.85 Y99.625 E80.90267
G1 X59.234 Y99.625 E80.92194
G1 X59.234 Y60.375 E82.89174
G1 X59.617 Y60.375 E82.91096
G1 X59.617 Y99.625 E84.88076
G1 X60 Y99.625 E84.89998
G1 X60 Y60.375 E86.86978
G1 X60.383 Y60.375 E86.889
G1 X60.383 Y99.625 E88.8588
G1 X60.766 Y99.625 E88.87802
G1 X60.766 Y60.375 E90.84782
G1 X61.15 Y60.375 E90.86709
G1 X61.15 Y99.625 E92.83689
G1 X61.533 Y99.625 E92.85611
G1 X61.533 Y60.375 E94.82591
G1 X61.916 Y60.375 E94.84513
G1 X61.916 Y99.625 E96.81493
G1 X62.299 Y99.625 E96.83415
G1 X62.299 Y60.375 E98.80395
G1 X62.682 Y60.375 E98.82317
G1 X62.682 Y99.625 E100.79297
G1 X63.066 Y99.625 E100.81224
G1 X63.066 Y60.375 E102.78204
G1 X63.449 Y60.375 E102.80126
G1 X63.449 Y99.625 E104.77106
G1 X63.832 Y99.625 E104.79028
G1 X63.832 Y60.375 E106.76008
G1 X64.215 Y60.375 E106.7793
G1 X64.215 Y99.625 E108.7491
G1 X64.599 Y99.625 E108.76837
G1 X64.599 Y60.375 E110.73817
G1 X64.982 Y60.375 E110.75739
G1 X64.982 Y99.625 E112.72719
G1 X65.365 Y99.625 E112.74641
G1 X65.365 Y60.375 E114.71621
G1 X65.748 Y60.375 E114.73543
G1 X65.748 Y99.625 E116.70523
G1 X66.131 Y99.625 E116.72445
G1 X66.131 Y60.375 E118.69425
G1 X66.515 Y60.375 E118.71352
G1 X66.515 Y99.625 E120.68332
G1 X66.898 Y99.625 E120.70254
G1 X66.898 Y60.375 E122.67234
G1 X67.281 Y60.375 E122.69156
G1 X67.281 Y99.625 E124.66136
G1 X67.664 Y99.625 E124.68058
G1 X67.664 Y60.375 E126.65038
G1 X67.716 Y60.375 E126.65299
G1 X68.047 Y60.706 E126.67648
G1 X68.047 Y99.294 E128.61305
G1 X68.431 Y98.911 E128.64027
G1 X68.431 Y61.089 E130.5384
G1 X68.814 Y61.473 E130.56562
G1 X68.814 Y98.527 E132.42521
G1 X69.023 Y98.318 E132.44004
G1 X69.197 Y98.318 E132.44877
G1 X69.197 Y61.682 E134.28738
G1 X69.58 Y61.682 E134.3066
G1 X69.58 Y98.318 E136.14521
G1 X69.963 Y98.318 E136.16443
G1 X69.963 Y61.682 E138.00304
G1 X70.33 Y61.682 E138.02146
G1 X70.347 Y61.698 E138.02263
G1 X70.347 Y98.302 E139.85964
G1 X70.73 Y97.918 E139.88686
G1 X70.73 Y62.082 E141.68532
G1 X71.113 Y62.465 E141.7125
G1 X71.113 Y97.535 E143.47252
G1 X71.496 Y97.152 E143.4997
G1 X71.496 Y62.848 E145.22128
G1 X71.637 Y62.989 E145.23129
G1 X71.88 Y62.989 E145.24349
G1 X71.88 Y97.011 E146.95092
G1 X72.263 Y97.011 E146.97014
G1 X72.263 Y62.989 E148.67757
G1 X72.646 Y62.989 E148.69679
G1 X72.646 Y97.011 E150.40422
G1 X72.944 Y97.011 E150.41918
G1 X73.029 Y96.926 E150.42521
G1 X73.029 Y63.074 E152.1241
G1 X73.412 Y63.457 E152.15128
G1 X73.412 Y96.543 E153.81173
G1 X73.796 Y96.16 E153.83895
G1 X73.796 Y63.84 E155.46096
G1 X74.179 Y64.223 E155.48814
G1 X74.179 Y95.777 E157.07171
G1 X74.562 Y95.393 E157.09893
G1 X74.562 Y64.607 E158.64395
G1 X74.945 Y64.99 E158.67113
G1 X74.945 Y95.01 E160.17771
G1 X75.328 Y94.627 E160.20489
G1 X75.328 Y65.373 E161.67303
G1 X75.712 Y65.756 E161.70025
G1 X75.712 Y94.244 E163.12995
G1 X76.095 Y93.861 E163.15713
G1 X76.095 Y66.139 E164.54838
G1 X76.478 Y66.523 E164.5756
G1 X76.478 Y93.477 E165.92831
G1 X76.861 Y93.094 E165.95549
G1 X76.861 Y66.906 E167.26976
G1 E163.21976 F2400
;WIPE_START
G1 F6240
G1 X76.861 Y68.138 E162.76976
;WIPE_END
G92 E0
G1 X42.756 Y68.596 F7800
G1 E4.5 F2400
G1 F1800
G1 X42.756 Y91.404 E5.64464
G1 X42.372 Y91.021 E5.67186
G1 X42.372 Y68.979 E6.77806
G1 X41.989 Y69.363 E6.80528
G1 X41.989 Y90.637 E7.87294
G1 X41.682 Y90.33 E7.89473
G1 X41.682 Y89.023 E7.96032
G1 X41.606 Y88.947 E7.96571
G1 X41.606 Y71.053 E8.86374
G1 X41.682 Y70.977 E8.86913
G1 X41.682 Y69.67 E8.93472
G1 E4.88472 F2400
;WIPE_START
G1 F6240
G1 X41.682 Y70.902 E4.43472
;WIPE_END
G92 E0
G1 X40.456 Y87.797 F7800
G1 E4.5 F2400
G1 F1800
G1 X40.456 Y72.203 E5.2826
G1 X40.84 Y71.819 E5.30985
G1 X40.839 Y88.181 E6.13099
G1 X41.223 Y88.564 E6.15821
G1 X41.223 Y71.436 E7.01779
G1 X41.484 Y71.175 E7.03631
G1 E2.98631 F2400
;WIPE_START
G1 F6240
G1 X41.223 Y71.436 E2.85144
G1 X41.223 Y72.298 E2.53631
;WIPE_END
G92 E0
G1 X69.152 Y21.372 F7800
G1 E4.5 F2400
G1 F1800
G1 X70.459 Y21.372 E4.56559
G1 X78.629 Y29.541 E5.14541
G1 X78.629 Y30.848 E5.211
G1 X79.936 Y32.155 E5.30376
G1 X79.936 Y47.845 E6.09118
G1 X78.629 Y49.152 E6.18394
G1 X78.629 Y50.459 E6.24953
G1 X70.459 Y58.629 E6.82938
G1 X69.152 Y58.629 E6.89497
G1 X67.845 Y59.936 E6.98773
G1 X52.155 Y59.936 E7.77515
G1 X50.848 Y58.629 E7.86791
G1 X49.541 Y58.629 E7.9335
G1 X41.372 Y50.459 E8.51332
G1 X41.372 Y49.152 E8.57891
G1 X40.064 Y47.845 E8.67171
G1 X40.064 Y32.155 E9.45913
G1 X41.372 Y30.848 E9.55193
G1 X41.372 Y29.541 E9.61752
G1 X49.541 Y21.372 E10.1973
G1 X50.848 Y21.372 E10.26289
G1 X52.155 Y20.064 E10.35569
G1 X67.845 Y20.064 E11.14311
G1 X69.115 Y21.335 E11.23328
G1 E7.18328 F2400
;WIPE_START
G1 F6240
G1 X68.244 Y20.464 E6.73328
;WIPE_END
G92 E0
G1 X78.516 Y48.825 F7800
G1 E4.5 F2400
G1 F1800
G1 X78.777 Y48.564 E4.51852
G1 X78.777 Y31.436 E5.3781
G1 X79.161 Y31.819 E5.40532
G1 X79.16 Y48.181 E6.22646
G1 X79.544 Y47.798 E6.25368
G1 X79.544 Y32.203 E7.03633
G1 E2.98633 F2400
;WIPE_START
G1 F6240
G1 X79.544 Y33.435 E2.53633
;WIPE_END
G92 E0
G1 X41.682 Y50.33 F7800
G1 E4.5 F2400
G1 F1800
G1 X41.682 Y49.023 E4.56559
G1 X41.606 Y48.947 E4.57098
G1 X41.606 Y31.053 E5.46901
G1 X41.682 Y30.977 E5.4744
G1 X41.682 Y29.67 E5.53999
G1 X41.989 Y29.363 E5.56178
G1 X41.989 Y50.637 E6.62944
G1 X42.372 Y51.021 E6.65666
G1 X42.372 Y28.979 E7.76286
G1 X42.756 Y28.596 E7.79008
G1 X42.756 Y51.404 E8.93472
G1 X43.139 Y51.787 E8.9619
G1 X43.139 Y28.213 E10.14498
G1 X43.522 Y27.83 E10.17216
G1 X43.522 Y52.17 E11.39369
G1 X43.905 Y52.553 E11.42087
G1 X43.905 Y27.447 E12.68084
G1 X44.288 Y27.063 E12.70806
G1 X44.288 Y52.937 E14.00657
G1 X44.672 Y53.32 E14.03379
G1 X44.672 Y26.68 E15.37074
G1 X45.055 Y26.297 E15.39792
G1 X45.055 Y53.703 E16.77332
G1 X45.438 Y54.086 E16.8005
G1 X45.438 Y25.914 E18.21434
G1 X45.821 Y25.53 E18.24156
G1 X45.821 Y54.47 E19.69394
G1 X46.204 Y54.853 E19.72112
G1 X46.204 Y25.147 E21.21194
G1 X46.588 Y24.764 E21.23916
G1 X46.588 Y55.236 E22.76843
G1 X46.971 Y55.619 E22.79561
G1 X46.971 Y24.381 E24.36332
G1 X47.354 Y23.998 E24.3905
G1 X47.354 Y56.002 E25.99665
G1 X47.737 Y56.386 E26.02387
G1 X47.737 Y23.614 E27.66856
G1 X48.12 Y23.231 E27.69574
G1 X48.12 Y56.769 E29.37888
G1 X48.504 Y57.152 E29.4061
G1 X48.504 Y22.848 E31.12768
G1 X48.887 Y22.465 E31.15486
G1 X48.887 Y57.535 E32.91488
G1 X49.27 Y57.918 E32.94206
G1 X49.27 Y22.082 E34.74052
G1 X49.653 Y21.698 E34.76774
G1 X49.653 Y58.302 E36.60475
G1 X49.67 Y58.318 E36.60592
G1 X50.037 Y58.318 E36.62434
G1 X50.037 Y21.682 E38.46295
G1 X50.42 Y21.682 E38.48217
G1 X50.42 Y58.318 E40.32078
G1 X50.803 Y58.318 E40.34
G1 X50.803 Y21.682 E42.17861
G1 X50.977 Y21.682 E42.18734
G1 X51.186 Y21.473 E42.20217
G1 X51.186 Y58.527 E44.06176
G1 X51.569 Y58.911 E44.08898
G1 X51.569 Y21.089 E45.98711
G1 X51.953 Y20.706 E46.01433
G1 X51.953 Y59.294 E47.9509
G1 X52.284 Y59.625 E47.97439
G1 X52.336 Y59.625 E47.977
G1 X52.336 Y20.375 E49.9468
G1 X52.719 Y20.375 E49.96602
G1 X52.719 Y59.625 E51.93582
G1 X53.102 Y59.625 E51.95504
G1 X53.102 Y20.375 E53.92484
G1 X53.485 Y20.375 E53.94406
G1 X53.485 Y59.625 E55.91386
G1 X53.869 Y59.625 E55.93313
G1 X53.869 Y20.375 E57.90293
G1 X54.252 Y20.375 E57.92215
G1 X54.252 Y59.625 E59.89195
G1 X54.635 Y59.625 E59.91117
G1 X54.635 Y20.375 E61.88097
G1 X55.018 Y20.375 E61.90019
G1 X55.018 Y59.625 E63.86999
G1 X55.401 Y59.625 E63.88921
G1 X55.401 Y20.375 E65.85901
G1 X55.785 Y20.375 E65.87828
G1 X55.785 Y59.625 E67.84808
G1 X56.168 Y59.625 E67.8673
G1 X56.168 Y20.375 E69.8371
G1 X56.551 Y20.375 E69.85632
G1 X56.551 Y59.625 E71.82612
G1 X56.934 Y59.625 E71.84534
G1 X56.934 Y20.375 E73.81514
G1 X57.318 Y20.375 E73.83441
G1 X57.318 Y59.625 E75.80421
G1 X57.701 Y59.625 E75.82343
G1 X57.701 Y20.375 E77.79323
G1 X58.084 Y20.375 E77.81245
G1 X58.084 Y59.625 E79.78225
G1 X58.467 Y59.625 E79.80147
G1 X58.467 Y20.375 E81.77127
G1 X58.85 Y20.375 E81.79049
G1 X58.85 Y59.625 E83.76029
G1 X59.234 Y59.625 E83.77956
G1 X59.234 Y20.375 E85.74936
G1 X59.617 Y20.375 E85.76858
G1 X59.617 Y59.625 E87.73838
G1 X60 Y59.625 E87.7576
G1 X60 Y20.375 E89.7274
G1 X60.383 Y20.375 E89.74662
G1 X60.383 Y59.625 E91.71642
G1 X60.766 Y59.625 E91.73564
G1 X60.766 Y20.375 E93.70544
G1 X61.15 Y20.375 E93.72471
G1 X61.15 Y59.625 E95.69451
G1 X61.533 Y59.625 E95.71373
G1 X61.533 Y20.375 E97.68353
G1 X61.916 Y20.375 E97.70275
G1 X61.916 Y59.625 E99.67255
G1 X62.299 Y59.625 E99.69177
G1 X62.299 Y20.375 E101.66157
G1 X62.682 Y20.375 E101.68079
G1 X62.682 Y59.625 E103.65059
G1 X63.066 Y59.625 E103.66986
G1 X63.066 Y20.375 E105.63966
G1 X63.449 Y20.375 E105.65888
G1 X63.449 Y59.625 E107.62868
G1 X63.832 Y59.625 E107.6479
G1 X63.832 Y20.375 E109.6177
G1 X64.215 Y20.375 E109.63692
G1 X64.215 Y59.625 E111.60672
G1 X64.599 Y59.625 E111.62599
G1 X64.599 Y20.375 E113.59579
G1 X64.982 Y20.375 E113.61501
G1 X64.982 Y59.625 E115.58481
G1 X65.365 Y59.625 E115.60403
G1 X65.365 Y20.375 E117.57383
G1 X65.748 Y20.375 E117.59305
G1 X65.748 Y59.625 E119.56285
G1 X66.131 Y59.625 E119.58207
G1 X66.131 Y20.375 E121.55187
G1 X66.515 Y20.375 E121.57114
G1 X66.515 Y59.625 E123.54094
G1 X66.898 Y59.625 E123.56016
G1 X66.898 Y20.375 E125.52996
G1 X67.281 Y20.375 E125.54918
G1 X67.281 Y59.625 E127.51898
G1 X67.664 Y59.625 E127.5382
G1 X67.664 Y20.375 E129.508
G1 X67.716 Y20.375 E129.51061
G1 X68.047 Y20.706 E129.5341
